public/piece/anarcandy/wP.svg

<svg xmlns="http://www.w3.org/2000/svg" width="512" height="512" fill="none"><path fill="#00173C" d="M388.25 487.237c9.682 0 16.827-9.035 14.596-18.456l-15.703-66.318c-1.564-7.227-8.838-12.943-16.291-12.943h-22.915l-68.283-251.299c-.519-5.688-16.238-7.221-25.581-7.221s-25.065 1.533-25.59 7.221L160.211 389.52h-20.459c-7.455 0-14.733 5.716-16.277 12.943l-15.096 66.451c-2.132 9.387 5.002 18.323 14.627 18.323H388.25Z"/><path fill="#FF9CAE" d="M243.25 144.79c3.626.75 13.099 1.795 21.985-.024l9.988 36.797c-16.218 3.677-34.714 1.532-41.935 0l9.962-36.773ZM230.071 193.437l-28.849 106.489c19.921 4.979 69.036 11.951 106.13 0l-28.909-106.501c-18.238 3.974-39.848 1.664-48.372.012Z"/><path fill="#FF9CAE" fill-rule="evenodd" d="M310.679 312.183c-48.138 13.177-95.243 5.491-112.777 0l-25.528 94.231-31.34-.184c-1.139 0-3.806 1.854-5.368 9.272-1.562 7.417-7.483 34.322-10.248 46.848-.488 2.602.878 7.905 10.248 8.296 9.37.39 83.285.162 119.071 0h.403c35.786.162 109.701.39 119.071 0 9.369-.391 10.736-5.694 10.248-8.296-2.766-12.526-8.687-39.431-10.248-46.848-1.562-7.418-4.23-9.272-5.368-9.272l-32.586.184-25.578-94.231ZM161.603 423.798c1.82 13.14 42.571 23.662 92.608 23.662 50.044 0 90.803-10.519 92.601-23.662.043-7.027-5.332-8.257-8.024-7.993-14.516 8.537-46.893 14.484-84.52 14.484-37.632 0-70.012-5.952-84.528-14.493-2.497-.26-7.619.975-8.137 8.002Z" clip-rule="evenodd"/></svg>

<svg width="512" height="512" viewBox="0 0 512 512" fill="none" xmlns="http://www.w3.org/2000/svg">
<path d="M388.25 487.237C397.932 487.237 405.077 478.202 402.846 468.781L387.143 402.463C385.579 395.236 378.305 389.52 370.852 389.52H347.937L279.654 138.221C279.135 132.533 263.416 131 254.073 131C244.73 131 229.008 132.533 228.483 138.221L160.211 389.52H139.752C132.297 389.52 125.019 395.236 123.475 402.463L108.379 468.914C106.247 478.301 113.381 487.237 123.006 487.237H388.25Z" fill="#00173C"/>
<path d="M243.25 144.79C246.876 145.54 256.349 146.585 265.235 144.766L275.223 181.563C259.005 185.24 240.509 183.095 233.288 181.563L243.25 144.79Z" fill="#FF9CAE"/>
<path d="M230.071 193.437L201.222 299.926C221.143 304.905 270.258 311.877 307.352 299.926L278.443 193.425C260.205 197.399 238.595 195.089 230.071 193.437Z" fill="#FF9CAE"/>
<path fill-rule="evenodd" clip-rule="evenodd" d="M310.679 312.183C262.541 325.36 215.436 317.674 197.902 312.183L172.374 406.414L141.034 406.23C139.895 406.23 137.228 408.084 135.666 415.502C134.104 422.919 128.183 449.824 125.418 462.35C124.93 464.952 126.296 470.255 135.666 470.646C145.036 471.036 218.951 470.808 254.737 470.646H255.14C290.926 470.808 364.841 471.036 374.211 470.646C383.58 470.255 384.947 464.952 384.459 462.35C381.693 449.824 375.772 422.919 374.211 415.502C372.649 408.084 369.981 406.23 368.843 406.23L336.257 406.414L310.679 312.183ZM161.603 423.798C163.423 436.938 204.174 447.46 254.211 447.46C304.255 447.46 345.014 436.941 346.812 423.798C346.855 416.771 341.48 415.541 338.788 415.805C324.272 424.342 291.895 430.289 254.268 430.289C216.636 430.289 184.256 424.337 169.74 415.796C167.243 415.536 162.121 416.771 161.603 423.798Z" fill="#FF9CAE"/>
</svg>
